packages/foundations/assets/icons/functional/images/social/thumbs_down_14.svg

<svg width="14" height="14" viewBox="0 0 14 14" fill="none" xmlns="http://www.w3.org/2000/svg">
<g clip-path="url(#clip0_187_455)">
<path fill-rule="evenodd" clip-rule="evenodd" d="M9.45702 9.10068C9.56973 9.42968 9.67542 9.81048 9.73142 10.2032C9.81962 10.8206 9.67332 11.4065 9.31702 11.8524C8.97542 12.2815 8.47142 12.5531 7.88902 12.6C6.75852 12.5874 6.39102 11.4275 6.24122 10.9487C5.88002 9.95888 5.33752 9.43528 4.88952 9.15318C4.86152 9.51438 4.56822 9.80138 4.20002 9.80138H2.10002C1.71362 9.80138 1.40002 9.48848 1.40002 9.10138V2.79998C1.40002 2.41288 1.71362 2.09998 2.10002 2.09998H4.20002C4.50942 2.09998 4.76352 2.30368 4.85592 2.58228C6.09702 2.06148 7.79242 1.39997 8.40002 1.39997C10.4412 1.39997 12.6 3.91858 12.6 6.29998C12.6 7.06578 12.6 9.09998 10.5 9.09998L9.45702 9.10068ZM2.80002 3.50068V8.40138H3.50002V3.63648V3.50068H2.80002ZM4.90002 4.08728V7.60758C5.64622 7.88198 6.87682 8.60858 7.56702 10.5C7.72032 10.9886 7.82532 11.1447 7.87712 11.1951C7.98772 11.172 8.12212 11.1069 8.22222 10.9809C8.33842 10.8353 8.37972 10.6407 8.34542 10.402C8.22502 9.56198 7.78822 8.74158 7.78332 8.73318C7.66642 8.51618 7.67272 8.25298 7.79872 8.04228C7.92472 7.83158 8.15292 7.70138 8.39932 7.70138H10.4993C10.906 7.70138 11.1993 7.70138 11.1993 6.30138C11.1993 4.56538 9.57042 2.80138 8.40422 2.80138C8.03602 2.81888 6.38192 3.45168 4.90002 4.08728Z" fill="#1A1C1F"/>
</g>
<defs>
<clipPath id="clip0_187_455">
<rect width="14" height="14" fill="white"/>
</clipPath>
</defs>
</svg>

<svg xmlns="http://www.w3.org/2000/svg" width="14" height="14" fill="none"><g clip-path="url(#a)"><path fill="#1A1C1F" fill-rule="evenodd" d="M9.457 9.1c.113.33.218.71.274 1.103.089.618-.058 1.204-.414 1.65-.342.428-.846.7-1.428.747-1.13-.013-1.498-1.172-1.648-1.651-.361-.99-.903-1.514-1.351-1.796a.695.695 0 0 1-.69.648H2.1a.7.7 0 0 1-.7-.7V2.8a.7.7 0 0 1 .7-.7h2.1c.31 0 .564.204.656.482C6.097 2.062 7.792 1.4 8.4 1.4c2.041 0 4.2 2.519 4.2 4.9 0 .766 0 2.8-2.1 2.8zM2.8 3.5v4.901h.7v-4.9zm2.1.587v3.52c.746.275 1.977 1.002 2.667 2.893.153.489.258.645.31.695a.6.6 0 0 0 .345-.214q.175-.22.123-.579c-.12-.84-.557-1.66-.562-1.669A.7.7 0 0 1 8.4 7.701h2.1c.407 0 .7 0 .7-1.4 0-1.736-1.629-3.5-2.795-3.5-.368.018-2.022.65-3.504 1.286" clip-rule="evenodd"/></g><defs><clipPath id="a"><path fill="#fff" d="M0 0h14v14H0z"/></clipPath></defs></svg>
